site-1/img/logo-blue.svg

<svg width="464" height="260pt" viewBox="0 0 348 260" xmlns="http://www.w3.org/2000/svg"><g fill="#507fe1"><path d="M26.33 61.29C39.34 39.04 64.23 24.49 89.99 24c60.34-.02 120.69.03 181.03-.02-.04 13.34-.04 26.7 0 40.05-59.68-.06-119.37-.03-179.06-.02-8.88-.27-17.13 4.65-22.95 11.04-14.74 16.51-10.22 45.79 8.56 57.36 4.01 2.53 8.47 4.88 13.36 4.6 52.71-.03 105.42.01 158.13-.02 5.37-.23 11.01 1.19 15.02 4.93 5.54 4.62 8.03 12.38 6.45 19.39-1.83 8.89-10.36 15.85-19.48 15.67-53.35.06-106.7-.01-160.05.03-25.11-.14-49.64-13.65-63.13-34.84-6.98-10.46-10.61-22.73-12.58-35.04-.42-4.73-.43-9.53.12-14.25 1.99-11 5.01-22 10.92-31.59z"/><path d="M79.04 100.08c.2-10.32 9.59-19.31 19.91-19.06 52.68-.05 105.36.01 158.04-.03 17.46.2 34.8 6.57 48.13 17.87 13.43 11.12 22.63 27.05 26.03 44.12 2 7.19 2.26 14.76 1.44 22.15-2.07 11.71-5.48 23.4-12.06 33.43-13.6 21.82-38.83 35.67-64.54 35.46-58.67-.03-117.34-.04-176.01.01.04-13.35.04-26.71-.01-40.05 57.68.06 115.35-.02 173.02.03 3.41-.05 6.96.29 10.23-.91 8.8-3.38 16.43-10.01 20.45-18.6 3.81-8.05 4.75-17.28 3.42-26.03-2.35-12.56-12.15-23.36-24.47-26.79-4.15-.89-8.41-.66-12.62-.69-48.33.02-96.66 0-144.99.02-3.99-.05-8.1.3-11.96-.92-8.45-2.52-14.62-11.16-14.01-20.01z"/></g></svg>

<?xml version="1.0" encoding="UTF-8" ?>
<!DOCTYPE svg PUBLIC "-//W3C//DTD SVG 1.1//EN" "http://www.w3.org/Graphics/SVG/1.1/DTD/svg11.dtd">
<svg width="348pt" height="260pt" viewBox="0 0 348 260" version="1.1" xmlns="http://www.w3.org/2000/svg">
<g id="#507fe1ff">
<path fill="#507fe1" opacity="1.00" d=" M 26.33 61.29 C 39.34 39.04 64.23 24.49 89.99 24.00 C 150.33 23.98 210.68 24.03 271.02 23.98 C 270.98 37.32 270.98 50.68 271.02 64.03 C 211.34 63.97 151.65 64.00 91.96 64.01 C 83.08 63.74 74.83 68.66 69.01 75.05 C 54.27 91.56 58.79 120.84 77.57 132.41 C 81.58 134.94 86.04 137.29 90.93 137.01 C 143.64 136.98 196.35 137.02 249.06 136.99 C 254.43 136.76 260.07 138.18 264.08 141.92 C 269.62 146.54 272.11 154.30 270.53 161.31 C 268.70 170.20 260.17 177.16 251.05 176.98 C 197.70 177.04 144.35 176.97 91.00 177.01 C 65.89 176.87 41.36 163.36 27.87 142.17 C 20.89 131.71 17.26 119.44 15.29 107.13 C 14.87 102.40 14.86 97.60 15.41 92.88 C 17.40 81.88 20.42 70.88 26.33 61.29 Z" />
<path fill="#507fe1" opacity="1.00" d=" M 79.04 100.08 C 79.24 89.76 88.63 80.77 98.95 81.02 C 151.63 80.97 204.31 81.03 256.99 80.99 C 274.45 81.19 291.79 87.56 305.12 98.86 C 318.55 109.98 327.75 125.91 331.15 142.98 C 333.15 150.17 333.41 157.74 332.59 165.13 C 330.52 176.84 327.11 188.53 320.53 198.56 C 306.93 220.38 281.70 234.23 255.99 234.02 C 197.32 233.99 138.65 233.98 79.98 234.03 C 80.02 220.68 80.02 207.32 79.97 193.98 C 137.65 194.04 195.32 193.96 252.99 194.01 C 256.40 193.96 259.95 194.30 263.22 193.10 C 272.02 189.72 279.65 183.09 283.67 174.50 C 287.48 166.45 288.42 157.22 287.09 148.47 C 284.74 135.91 274.94 125.11 262.62 121.68 C 258.47 120.79 254.21 121.02 250.00 120.99 C 201.67 121.01 153.34 120.99 105.01 121.01 C 101.02 120.96 96.91 121.31 93.05 120.09 C 84.60 117.57 78.43 108.93 79.04 100.08 Z" />
</g>
</svg>
